X: 1163
T:Kiss Me Kate (A69)
N: page A69
N: heptatonic
S:Trad, arr. Paddy O'Brien
R:reel
E:9
I:speed 350
M:C|
K:G
F|"G"~G2 Bd gdBG|DEGB "C"AE~E2|"G"GABd gdBd|"C"ecBc AGEF|
"G"~G2Bd gdBG|DEGB "C"AE E2|"G"GABd gdBd|ecAc BG G||
g|"D"fgag fd~d2|"G"gfga bgeg|"D"fgag fd~d2|fdef "G"~g2(3def|
gbaf ~g2 bg|"D"fgag fd~d2|fded fd~d2|fdef "G"gedB||
